X: 32507
T: Planxty Burke
R: waltz
M: 3/4
K: Gdorian
|:B2|G2 A2 Bc|d4 c2|B2 c2 d2|c2 A2 F2|F2 A2 F2|f2 A2 F2|F2 A2 F2|c2 A2 F2|
GA B2 G2|d2 B2 G2|G2 B2 G2|g2 B2 G2|f4 f2|f2 g2 a2|f6|d4:|
|:fg|a2 g2 f2|g2 f2 e2|f2 e2 d2|c2 d2 e2|f2 e2 d2|g2 f2 e2|f2 e2 d2|c2 A2 F2|
GA B2 G2|d2 B2 G2|G2 B2 G2|d2 B2 G2|f4 f2|f2 g2 a2|f6|d4:|
|:c2|de f2 f2|f2 gf e2|f2 gf ed|c2 A2 F2|g4 g2|g2 ag f2|g2 d2 e2|f4 g2|
A2 g2 f2|e2 d2 c2|de f2 d2|c2 A2 F2|f4 c2|de f2 d2|B6|G4:|

